assets/icons/location.svg

<svg width="18" height="18" viewBox="0 0 18 18" fill="none" xmlns="http://www.w3.org/2000/svg">
  <path fill-rule="evenodd" clip-rule="evenodd" d="M9 4.3125C7.4467 4.3125 6.1875 5.5717 6.1875 7.125C6.1875 8.6783 7.4467 9.9375 9 9.9375C10.5533 9.9375 11.8125 8.6783 11.8125 7.125C11.8125 5.5717 10.5533 4.3125 9 4.3125ZM7.3125 7.125C7.3125 6.19302 8.06802 5.4375 9 5.4375C9.93198 5.4375 10.6875 6.19302 10.6875 7.125C10.6875 8.05698 9.93198 8.8125 9 8.8125C8.06802 8.8125 7.3125 8.05698 7.3125 7.125Z" fill="#2B2B2B"/>
  <path fill-rule="evenodd" clip-rule="evenodd" d="M10.2452 15.5829C9.99848 15.8672 9.75138 16.1385 9.49256 16.4009C9.2205 16.6767 8.7795 16.6767 8.50744 16.4009C8.24862 16.1385 8.00152 15.8672 7.75483 15.5829C7.25583 15.0078 6.58926 14.2045 5.9214 13.2938C5.25493 12.385 4.57892 11.3581 4.06735 10.3365C3.56159 9.32655 3.1875 8.26555 3.1875 7.30357C3.1875 3.49525 6.16824 1.3125 9 1.3125C11.8318 1.3125 14.8125 3.49525 14.8125 7.30357C14.8125 8.26555 14.4384 9.32655 13.9326 10.3365C13.4211 11.3581 12.7451 12.385 12.0786 13.2938C11.4107 14.2045 10.7442 15.0078 10.2452 15.5829ZM4.3125 7.30357C4.3125 4.19046 6.71301 2.4375 9 2.4375C11.287 2.4375 13.6875 4.19046 13.6875 7.30357C13.6875 8.0041 13.4053 8.87702 12.9267 9.83279C12.4539 10.777 11.8174 11.7476 11.1714 12.6285C10.5268 13.5075 9.88083 14.2862 9.39545 14.8456C9.24675 15.017 9.11336 15.1675 9 15.2937C8.88664 15.1675 8.75325 15.017 8.60455 14.8456C8.11917 14.2862 7.47324 13.5075 6.8286 12.6285C6.18257 11.7476 5.54608 10.777 5.07327 9.83279C4.59466 8.87702 4.3125 8.0041 4.3125 7.30357Z" fill="#2B2B2B"/>
</svg>

<svg xmlns="http://www.w3.org/2000/svg" width="18" height="18" fill="currentColor"><path fill-rule="evenodd" d="M9 4.313a2.813 2.813 0 1 0 0 5.625 2.813 2.813 0 0 0 0-5.626ZM7.312 7.124a1.688 1.688 0 1 1 3.376 0 1.688 1.688 0 0 1-3.376 0Z" clip-rule="evenodd"/><path fill-rule="evenodd" d="M10.245 15.583c-.247.284-.494.556-.752.818a.69.69 0 0 1-.986 0 17.342 17.342 0 0 1-.752-.818 36.448 36.448 0 0 1-1.834-2.29c-.666-.908-1.342-1.935-1.854-2.957-.505-1.01-.88-2.07-.88-3.032 0-3.809 2.981-5.992 5.813-5.992s5.813 2.183 5.813 5.992c0 .962-.375 2.023-.88 3.032-.512 1.022-1.188 2.049-1.854 2.958a36.464 36.464 0 0 1-1.834 2.289Zm-5.932-8.28c0-3.113 2.4-4.865 4.687-4.865 2.287 0 4.688 1.752 4.688 4.866 0 .7-.283 1.573-.761 2.529-.473.944-1.11 1.915-1.756 2.796A35.32 35.32 0 0 1 9 15.294a35.335 35.335 0 0 1-2.171-2.665c-.646-.881-1.283-1.852-1.756-2.796-.478-.956-.76-1.829-.76-2.53Z" clip-rule="evenodd"/></svg>
